public/Assets/profile.svg

<svg fill="none" height="138" viewBox="0 0 138 138" width="138" xmlns="http://www.w3.org/2000/svg" xmlns:xlink="http://www.w3.org/1999/xlink"><filter id="a" color-interpolation-filters="sRGB" filterUnits="userSpaceOnUse" height="138" width="138" x="0" y="0"><feFlood flood-opacity="0" result="BackgroundImageFix"/><feColorMatrix in="SourceAlpha" result="hardAlpha" type="matrix" values="0 0 0 0 0 0 0 0 0 0 0 0 0 0 0 0 0 0 127 0"/><feOffset dy="4"/><feGaussianBlur stdDeviation="4"/><feComposite in2="hardAlpha" operator="out"/><feColorMatrix type="matrix" values="0 0 0 0 0 0 0 0 0 0 0 0 0 0 0 0 0 0 0.4 0"/><feBlend in2="BackgroundImageFix" mode="normal" result="effect1_dropShadow_403_796"/><feBlend in="SourceGraphic" in2="effect1_dropShadow_403_796" mode="normal" result="shape"/></filter><linearGradient id="b" gradientUnits="userSpaceOnUse" x1="69" x2="69" y1="4" y2="126"><stop offset="0" stop-color="#1741cc"/><stop offset="1" stop-color="#16bcdc"/></linearGradient><linearGradient id="c" gradientUnits="userSpaceOnUse" x1="69" x2="69" y1="97.168" y2="25.6836"><stop offset="0" stop-color="#fff" stop-opacity=".8"/><stop offset="1" stop-color="#fff" stop-opacity=".8"/></linearGradient><g filter="url(#a)"><path d="m69 126c33.689 0 61-27.3106 61-61s-27.311-61-61-61c-33.6894 0-61 27.3106-61 61s27.3106 61 61 61z" fill="url(#b)"/><path d="m76.1484 61.4258h-7.1484-7.1484c-13.7944 0-25.0196 11.2252-25.0196 25.0195 0 5.9127 4.81 10.7227 10.7227 10.7227h42.8906c5.9127 0 10.7227-4.81 10.7227-10.7227 0-13.7943-11.2252-25.0195-25.0196-25.0195zm10.7227-17.8711c0-9.8537-8.0141-17.8711-17.8711-17.8711s-17.8711 8.0174-17.8711 17.8711c0 9.8536 8.0141 17.8711 17.8711 17.8711s17.8711-8.0177 17.8711-17.8711z" fill="url(#c)"/></g></svg>

<svg width="138" height="138" viewBox="0 0 138 138" fill="none" xmlns="http://www.w3.org/2000/svg">
<g id="Group 45" filter="url(#filter0_d_403_796)">
<g id="Group">
<g id="Group_2">
<path id="Vector" d="M69 126C102.689 126 130 98.6894 130 65C130 31.3106 102.689 4 69 4C35.3106 4 8 31.3106 8 65C8 98.6894 35.3106 126 69 126Z" fill="url(#paint0_linear_403_796)"/>
</g>
</g>
<g id="Group_3">
<g id="Group_4">
<path id="Vector_2" d="M76.1484 61.4258H69H61.8516C48.0572 61.4258 36.832 72.651 36.832 86.4453C36.832 92.358 41.642 97.168 47.5547 97.168H90.4453C96.358 97.168 101.168 92.358 101.168 86.4453C101.168 72.651 89.9428 61.4258 76.1484 61.4258ZM86.8711 43.5547C86.8711 33.701 78.857 25.6836 69 25.6836C59.143 25.6836 51.1289 33.701 51.1289 43.5547C51.1289 53.4083 59.143 61.4258 69 61.4258C78.857 61.4258 86.8711 53.4081 86.8711 43.5547Z" fill="url(#paint1_linear_403_796)"/>
</g>
</g>
</g>
<defs>
<filter id="filter0_d_403_796" x="0" y="0" width="138" height="138" filterUnits="userSpaceOnUse" color-interpolation-filters="sRGB">
<feFlood flood-opacity="0" result="BackgroundImageFix"/>
<feColorMatrix in="SourceAlpha" type="matrix" values="0 0 0 0 0 0 0 0 0 0 0 0 0 0 0 0 0 0 127 0" result="hardAlpha"/>
<feOffset dy="4"/>
<feGaussianBlur stdDeviation="4"/>
<feComposite in2="hardAlpha" operator="out"/>
<feColorMatrix type="matrix" values="0 0 0 0 0 0 0 0 0 0 0 0 0 0 0 0 0 0 0.4 0"/>
<feBlend mode="normal" in2="BackgroundImageFix" result="effect1_dropShadow_403_796"/>
<feBlend mode="normal" in="SourceGraphic" in2="effect1_dropShadow_403_796" result="shape"/>
</filter>
<linearGradient id="paint0_linear_403_796" x1="69" y1="4" x2="69" y2="126" gradientUnits="userSpaceOnUse">
<stop stop-color="#1741CC"/>
<stop offset="1" stop-color="#16BCDC"/>
</linearGradient>
<linearGradient id="paint1_linear_403_796" x1="69" y1="97.168" x2="69" y2="25.6836" gradientUnits="userSpaceOnUse">
<stop stop-color="white" stop-opacity="0.8"/>
<stop offset="1" stop-color="white" stop-opacity="0.8"/>
</linearGradient>
</defs>
</svg>
